!!!COM:	Martini, Johannes
!!!CDT:	~1440///-~1497//
!!!OTL:	Je remerchi dieu
!!!AGN:	Song; Chanson
!!!SCT:	Mar3014
!!!SCA:	Mar3014
!!!voices:	3
**kern	**kern	**kern
*staff3	*staff2	*staff1
*Ivox	*Ivox	*Ivox
*I"Bassus	*I"Tenor	*I"Cantus
*I'B	*I'T	*I'Cn
*clefGv2	*clefGv2	*clefG2
*k[]	*k[]	*k[]
*M2/1	*M2/1	*M2/1
*met(C|)	*met(C|)	*met(C|)
=1-	=1-	=1-
1.c	0r	0r
2B\	.	.
=2	=2	=2
1c	0r	0r
1d	.	.
=3	=3	=3
2c\	1.c	0r
1e	.	.
2d\	2B\	.
=4	=4	=4
2c\	1c	0r
4B\	.	.
4A/	.	.
2G/	1d	.
2B\	.	.
=5	=5	=5
2A/	2c\	0r
1c	1e	.
2B\	2d\	.
=6	=6	=6
2c\	2c\	0r
2.G/	4B\	.
.	4A/	.
.	2G/	.
4F/	.	.
4E/	2B\	.
4D/	.	.
=7	=7	=7
2F/	2A/	0r
2E/	1c	.
1D	.	.
.	2B\	.
=8	=8	=8
1C	0c	2r
.	.	2g/
2F/	.	2a/
2A/	.	2cc\
=9	=9	=9
2G/	0g	2b\
2.c\	.	4cc\
.	.	4dd\
.	.	2ee\
4B\	.	.
2G/	.	[2dd\
=10	=10	=10
2B\	0f	2dd\]
2c\	.	4cc\
.	.	4b\
1d	.	1a
=11	=11	=11
1G	2g\	1g
.	2G/	.
1r	2A/	1cc
.	2c\	.
=12	=12	=12
0r	2B\	4dd\
.	.	4cc\
.	4c\	4b\
.	4d\	4a/
.	2e\	2cc\
.	[2d\	[2b\
=13	=13	=13
2r	2d\]	4b\]
.	.	4a/
2G/	4c\	1g
.	4B\	.
2A/	1A	.
2c\	.	2f#i/
=14	=14	=14
2B\	1G	1g
4c\	.	.
4d\	.	.
2e\	2E/	1r
[2d\	2F/	.
=15	=15	=15
2d\]	2G/	0r
4c\	2.A/	.
4B\	.	.
1A	.	.
.	4B\	.
.	4c\	.
.	4d\	.
=16	=16	=16
2.G/	2e\	0r
.	1d	.
4F/	.	.
2G/	.	.
2E/	[2c\	.
=17	=17	=17
1D	2c\]	1r
.	2B\	.
1C	2.c\	2e/
.	.	2f/
.	4d\	.
=18	=18	=18
1r	2e\	2g/
.	2.f\	2.a/
1F	.	.
.	4g\	4b\
.	2a\	4cc\
.	.	4dd\
=19	=19	=19
1G	1g	2ee\
.	.	2.dd\
1A	2e\	.
.	.	4cc\
.	2c\	[2cc\
=20	=20	=20
1G	1d	2cc\]
.	.	2b\
1r	1c	2.cc\
.	.	4b\
=21	=21	=21
1c	2r	2g/
.	2e\	1a
1d	2f\	.
.	2d\	2f/
=22	=22	=22
1e	1c	2g/
.	.	2e/
1d	2r	2f/
.	2B\	4e/
.	.	4d/
=23	=23	=23
1r	2c\	4c/
.	.	4d/
.	2A/	4e/
.	.	4f/
1C	2G/	2g/
.	2c\	[2a/
=24	=24	=24
1D	2A/	2a/]
.	2d\	2.b\
1E	1G	.
.	.	4a/
.	.	[2g/
=25	=25	=25
1D	1A	2g/]
.	.	2f#i/
1r	1G	1g
=26	=26	=26
1C	0r	0r
1D	.	.
=27	=27	=27
2.E/	0r	1r
4D/	.	.
2E/	.	1c
[2F/	.	.
=28	=28	=28
2F/]	0r	1d
4E/	.	.
4D/	.	.
2C/	.	2.e/
[2c\	.	.
.	.	4d/
=29	=29	=29
2c\]	1c	2e/
2A/	.	1f
1B	1d	.
.	.	4e/
.	.	4d/
=30	=30	=30
2A/	2.e\	1c
2.A/	.	.
.	4d\	.
.	2e\	1cc
4G/	.	.
4F/	[2f\	.
4E/	.	.
=31	=31	=31
1D	2f\]	1dd
.	4e\	.
.	4d\	.
1r	2.c\	2.ee\
.	4B\	4dd\
=32	=32	=32
2r	2c\	2ee\
1D	1d	1ff
2E/	4c\	4ee\
.	4B\	4dd\
=33	=33	=33
1F	4A/	2.cc\
.	4B\	.
.	4c\	.
.	4d\	4b\
2E/	2e\	2cc\
2D/	2f\	[2dd\
=34	=34	=34
1G	2d\	2dd\]
.	1g	4cc\
.	.	4b\
1d	.	1a
.	2f#i\	.
=35	=35	=35
2B\	[0g	2r
2.e\	.	[2g/
.	.	4g/]
4d\	.	4f/
2c\	.	2e/
=36	=36	=36
2B\	0g]	2d/
1c	.	1e
4B\	.	4d/
4A/	.	4c/
=37	=37	=37
2G/	1g	2B/
2E/	.	1c
2F/	2r	.
2G/	[2g\	2B/
=38	=38	=38
1C	4g\]	2c/
.	4f\	.
.	2e\	2e/
2r	2d\	2f/
[2C/	[2e\	[2g/
=39	=39	=39
2C/]	2e\]	4g/]
.	.	4e/
2D/	4d\	2f/
.	4c\	.
2E/	2B\	2g/
2C/	[2c\	2e/
=40	=40	=40
1G	2c\]	1d
.	2B\	.
1C	2c\	2c/
.	2e\	2cc\
=41	=41	=41
2r	2f\	2dd\
1C	2.g\	1ee
.	4e\	.
2D/	2f\	[2dd\
=42	=42	=42
2E/	2g\	4dd\]
.	.	4cc\
2C/	2e\	1cc
1G	1d	.
.	.	2b\
=43	=43	=43
1C	1c	1cc
2r	2.g\	1ee
[2G/	.	.
.	4f\	.
=44	=44	=44
2G/]	2g\	2dd\
2A/	2e\	2cc\
2B\	1d	2.dd\
2G/	.	.
.	.	4cc\
=45	=45	=45
1d	2r	2b\
.	2f\	2a/
1G	2.g\	1b
.	4f\	.
=46	=46	=46
2r	2e\	1g
1G	2d\	.
.	1e	2b\
2A/	.	2cc\
=47	=47	=47
2B\	2d\	2dd\
2G/	1g	4cc\
.	.	4b\
1d	.	1a
.	2f#i\	.
=48	=48	=48
1G	1g	1g
2r	2.c\	1a
[2C/	.	.
.	4B\	.
=49	=49	=49
2C/]	2c\	2g/
2D/	2A/	2f/
2E/	1G	2.g/
2C/	.	.
.	.	4f/
=50	=50	=50
1G	2r	2e/
.	2B\	2d/
1C	2.c\	1e
.	4B\	.
=51	=51	=51
2r	2A/	1c
1C	2G/	.
.	1A	2e/
2D/	.	2f/
=52	=52	=52
2E/	2G/	2g/
2C/	1c	4f/
.	.	4e/
1G	.	1d
.	2B\	.
=53	=53	=53
0Cl	0cl	0cl
==	==	==
*-	*-	*-
!!!RDF**kern: l=long note in original notation
!!!RDF**kern: i=editorial accidental
!!!ENC:	Chris Gage 11-06-2014
!!!END:	2015/03/01/
!!!EED:	Jesse Rodin
!!!EEV:	2015/03/05/
!!!ONB:	Translated from MusicXML and edited on 2015/03/05/ by Craig Sapp
!!muse2ps: C^@{COM}^i2I150v85,85,150Q16
